svgs/light/light-switch-off.svg

<svg xmlns="http://www.w3.org/2000/svg" viewBox="0 0 384 512"><!--! Font Awesome Pro 6.0.0-alpha3 by @fontawesome - https://fontawesome.com License - https://fontawesome.com/license (Commercial License) --><path d="M320 0H64c-35.38 0-64 28.62-64 64v384c0 35.38 28.62 64 64 64h256c35.38 0 64-28.62 64-64v-384C384 28.62 355.4 0 320 0zM352 448c0 17.62-14.38 32-32 32h-112v-16c0-8.844-7.156-16-16-16s-16 7.156-16 16V480H64c-17.62 0-32-14.38-32-32V64c0-17.62 14.38-32 32-32h112v16C176 56.84 183.2 64 192 64s16-7.156 16-16V32H320c17.62 0 32 14.38 32 32V448zM240 95.1h-96c-26.4 0-48 21.6-48 47.1v224c0 26.4 21.6 48 48 48h96c26.4 0 48-21.6 48-48v-224C288 117.6 266.4 95.1 240 95.1zM256 368c0 8.836-7.162 16-16 16h-96C135.2 384 128 376.8 128 368v-96h128V368zM256 240H128v-96C128 135.2 135.2 128 144 128h96C248.8 128 256 135.2 256 144V240zM176 352h32c8.844 0 16-7.156 16-16S216.8 320 208 320h-32C167.2 320 160 327.2 160 336S167.2 352 176 352z"/></svg>

<svg xmlns="http://www.w3.org/2000/svg" viewBox="0 0 384 512"><!--! Font Awesome Pro 6.4.2 by @fontawesome - https://fontawesome.com License - https://fontawesome.com/license (Commercial License) Copyright 2023 Fonticons, Inc. --><path d="M176 464v16H64c-17.7 0-32-14.3-32-32V64c0-17.7 14.3-32 32-32H176V48c0 8.8 7.2 16 16 16s16-7.2 16-16V32H320c17.7 0 32 14.3 32 32V448c0 17.7-14.3 32-32 32H208V464c0-8.8-7.2-16-16-16s-16 7.2-16 16zM0 448c0 35.3 28.7 64 64 64H320c35.3 0 64-28.7 64-64V64c0-35.3-28.7-64-64-64H64C28.7 0 0 28.7 0 64V448zM176 344h32c8.8 0 16-7.2 16-16s-7.2-16-16-16H176c-8.8 0-16 7.2-16 16s7.2 16 16 16zm-48 24V272H256v96c0 8.8-7.2 16-16 16H144c-8.8 0-16-7.2-16-16zm0-224c0-8.8 7.2-16 16-16h96c8.8 0 16 7.2 16 16v96H128V144zM96 368c0 26.5 21.5 48 48 48h96c26.5 0 48-21.5 48-48V144c0-26.5-21.5-48-48-48H144c-26.5 0-48 21.5-48 48V368z"/></svg>
